!! 00006] TT[TB
!! Eigene Aufnahme
!!!OTL: Fan Dui hua
!!!ARE: Asia, China,ÿLiaoning, Shenyang
!! Ethnic Group: Han
!! III, 298
!!!SCT: C0156
!!!YEM: Copyright 1995, estate of Helmut Schaffrath.
**kern
*ICvox
*Ivox
*M2/4
*k[f#c#g#d#]
*E:
{8b
8a#
8b
8ee
=1
8cc#
8b
8a#
8f#}
=2
{8b
8a#
8b
8ee
=3
8cc#
8b
8a#
8f#}
=4
{8b
8a#
8b
8ee
=5
8cc#
8b
8a#
8f#}
=6
{8b
8a#
8b
8ee
=7
8cc#
8b
8a#
8f#}
=8
{8a#
16a
16cc#
8.b
16b
=9
8a#
8a
4b}
=10
{8g#
8b
16g#
16b
16g#
16b
=11
8.ee
16cc#
8.b
16b}
=12
{8g#
8b
16g#
16b
16g#
16b
=13
8ee
16g#
16cc#
4b}
=14
{8.ee
16cc#
8.b
16b
=15
8cc#
16g#
16cc#
4b}
=16
{8.ee
16cc#
8ee
8cc#
=17
8.ee
16cc#
8.b
16b}
=18
{8cc#
16g#
16b
16cc#
16b
16g#
16b
=19
8cc#
16g#
16cc#
4b}
=20
{8.g#
16b
8g#
8b
=21
8ee
8cc#
4b}
=22
{8.g#
16b
8g#
8b
=23
8ee
8cc#
4b}
=24
{8.f#
16g#
8b
8ee
=25
8.g#
16f#
4e}
=26
{8e
8e
8e
8g#
=27
8f#
8e
8e
8c#
=28
2B}
==
!!!AGN: Xiaodiao. Chang siji huahui
!! sehr typisch. Leicht bearbeitet. Frage-Antwort ueber Blumen.
!!    Saengerin: Huang Bai.     4# KLINGT NICHT TEMPERIERT!
!!    Diese Sammlung enthaelt mit Stand 1987 wenigstens 32 Aufnahmen
!!    mit dem Titel "Dui hua"
!!    C0046, C0495, C0136
!!!ONB: ESAC (Essen Associative Code) Database: CHINA
!!!AMT: simple duple
!!!AIN: vox
!!!EED: Helmut Schaffrath
!!!EEV: 1.0
*-
